images/svgs/instagram.svg

<?xml version="1.0" encoding="UTF-8"?>
<svg width="23px" height="24px" viewBox="0 0 23 24" version="1.1" xmlns="http://www.w3.org/2000/svg" xmlns:xlink="http://www.w3.org/1999/xlink">
    <!-- Generator: Sketch 45.1 (43504) - http://www.bohemiancoding.com/sketch -->
    <title>instagram</title>
    <desc>Created with Sketch.</desc>
    <defs></defs>
    <g id="Page-1" stroke="none" stroke-width="1" fill="none" fill-rule="evenodd">
        <g id="Contact-page---Desktop" transform="translate(-234.000000, -426.000000)" fill-rule="nonzero" fill="#846DCB">
            <g id="instagram" transform="translate(234.000000, 426.000000)">
                <path d="M11.5,2.86529032 C14.5728,2.86529032 14.9362,2.87922581 16.1452333,2.93341935 C17.2684,2.98296774 17.8748333,3.17419355 18.2788667,3.33290323 C18.8132333,3.54193548 19.1996333,3.79587097 19.5998333,4.19922581 C20.0038667,4.60722581 20.2515,4.99277419 20.4623333,5.53316129 C20.6195,5.94116129 20.8081,6.55819355 20.8579333,7.68774194 C20.9116,8.91251613 20.9254,9.28025806 20.9254,12.3785806 C20.9254,15.4769032 20.9116,15.8485161 20.8579333,17.0694194 C20.8088667,18.2036129 20.6195,18.816 20.4623333,19.224 C20.2553333,19.7636129 20.0038667,20.1538065 19.6044333,20.5579355 C19.2004,20.9659355 18.8186,21.216 18.2834667,21.4289032 C17.8794333,21.5876129 17.2684,21.7780645 16.1498333,21.8283871 C14.9369667,21.8825806 14.5728,21.8965161 11.5046,21.8965161 C8.4364,21.8965161 8.0684,21.8825806 6.85936667,21.8283871 C5.7362,21.7788387 5.12976667,21.5876129 4.72573333,21.4289032 C4.19136667,21.219871 3.80496667,20.9659355 3.40476667,20.5625806 C3.00073333,20.1545806 2.7531,19.7690323 2.54226667,19.2286452 C2.3851,18.8206452 2.1965,18.2036129 2.14666667,17.0740645 C2.093,15.8492903 2.0792,15.4815484 2.0792,12.3832258 C2.0792,9.28490323 2.093,8.91329032 2.14666667,7.6923871 C2.19573333,6.55819355 2.3851,5.94580645 2.54226667,5.53780645 C2.74926667,4.99819355 3.00073333,4.608 3.40016667,4.20387097 C3.8042,3.79587097 4.186,3.54580645 4.72113333,3.33290323 C5.12516667,3.17419355 5.7362,2.98374194 6.85476667,2.93341935 C8.06303333,2.87922581 8.4272,2.86529032 11.5,2.86529032 Z M11.5,0.774193548 C8.37813333,0.774193548 7.98713333,0.788129032 6.76046667,0.842322581 C5.5384,0.896516129 4.6989,1.09625806 3.97056667,1.38193548 C3.21156667,1.68154839 2.5691,2.0756129 1.93123333,2.7243871 C1.28876667,3.36851613 0.897766667,4.01729032 0.601833333,4.77909677 C0.318933333,5.51845161 0.121133333,6.36232258 0.0674666667,7.5963871 C0.0138,8.83896774 0,9.23380645 0,12.3870968 C0,15.5403871 0.0138,15.9344516 0.0674666667,17.1731613 C0.121133333,18.4072258 0.318933333,19.2549677 0.601833333,19.9904516 C0.898533333,20.7569032 1.28876667,21.4056774 1.93123333,22.0498065 C2.5691,22.6939355 3.21156667,23.0934194 3.96596667,23.3883871 C4.69813333,23.6740645 5.5338,23.8738065 6.75586667,23.928 C7.98253333,23.9821935 8.37276667,23.996129 11.4954,23.996129 C14.6180333,23.996129 15.0082667,23.9821935 16.2349333,23.928 C17.457,23.8738065 18.2965,23.6740645 19.0248333,23.3883871 C19.7792333,23.0934194 20.4217,22.6947097 21.0595667,22.0498065 C21.6974333,21.4049032 22.0930333,20.7569032 22.3851333,19.9950968 C22.6680333,19.2557419 22.8658333,18.411871 22.9195,17.1778065 C22.9731667,15.9390968 22.9869667,15.5450323 22.9869667,12.3917419 C22.9869667,9.23845161 22.9731667,8.8443871 22.9195,7.60567742 C22.8658333,6.3716129 22.6680333,5.52387097 22.3851333,4.7883871 C22.1022333,4.01729032 21.7112333,3.36851613 21.0687667,2.7243871 C20.4309,2.08025806 19.7884333,1.68077419 19.0340333,1.38580645 C18.3018667,1.10012903 17.4662,0.900387097 16.2441333,0.846193548 C15.0136333,0.787354839 14.6226333,0.773419355 11.5007667,0.773419355 L11.5007667,0.773419355 L11.5,0.774193548 Z" id="Shape"></path>
                <path d="M11.5,6.42193548 C8.2386,6.42193548 5.59283333,9.09367742 5.59283333,12.3870968 C5.59283333,15.6805161 8.2386,18.3522581 11.5,18.3522581 C14.7614,18.3522581 17.4071667,15.6805161 17.4071667,12.3870968 C17.4071667,9.09367742 14.7614,6.42193548 11.5,6.42193548 Z M11.5,16.2565161 C9.384,16.2565161 7.6682,14.523871 7.6682,12.3870968 C7.6682,10.2503226 9.384,8.51767742 11.5,8.51767742 C13.616,8.51767742 15.3318,10.2503226 15.3318,12.3870968 C15.3318,14.523871 13.616,16.2565161 11.5,16.2565161 Z" id="Shape"></path>
                <path d="M19.0202333,6.18580645 C19.0202333,6.95458065 18.4030667,7.57858065 17.641,7.57858065 C16.8789333,7.57858065 16.2617667,6.95535484 16.2617667,6.18580645 C16.2617667,5.41703226 16.8789333,4.79303226 17.641,4.79303226 C18.4030667,4.79303226 19.0202333,5.41625806 19.0202333,6.18580645 Z" id="Shape"></path>
            </g>
        </g>
    </g>
</svg>

<svg width="23" height="24" viewBox="0 0 23 24" xmlns="http://www.w3.org/2000/svg"><title>instagram</title><g fill="#846DCB"><path d="M11.5 2.865c3.073 0 3.436.014 4.645.068 1.123.05 1.73.241 2.134.4.534.209.92.463 1.32.866.405.408.652.794.863 1.334.157.408.346 1.025.396 2.155.054 1.225.067 1.592.067 4.69 0 3.099-.013 3.47-.067 4.691-.05 1.135-.239 1.747-.396 2.155a3.61 3.61 0 0 1-.858 1.334 3.595 3.595 0 0 1-1.32.87c-.405.16-1.016.35-2.134.4-1.213.055-1.577.069-4.645.069-3.069 0-3.437-.014-4.646-.069-1.123-.05-1.73-.24-2.133-.4a3.568 3.568 0 0 1-1.321-.865 3.636 3.636 0 0 1-.863-1.334c-.157-.408-.345-1.025-.395-2.155-.054-1.225-.068-1.592-.068-4.69 0-3.1.014-3.47.068-4.692.049-1.134.238-1.746.395-2.154.207-.54.459-.93.858-1.334a3.595 3.595 0 0 1 1.321-.871c.404-.159 1.015-.35 2.134-.4 1.208-.054 1.572-.068 4.645-.068zm0-2.09c-3.122 0-3.513.013-4.74.067-1.222.055-2.061.254-2.79.54a5.61 5.61 0 0 0-2.039 1.342A5.688 5.688 0 0 0 .601 4.78C.32 5.52.122 6.362.068 7.596.014 8.84 0 9.234 0 12.387c0 3.153.014 3.547.067 4.786.054 1.234.252 2.082.535 2.817a5.676 5.676 0 0 0 1.33 2.06 5.62 5.62 0 0 0 2.034 1.338c.732.286 1.568.486 2.79.54 1.227.054 1.617.068 4.74.068 3.122 0 3.512-.014 4.739-.068 1.222-.054 2.062-.254 2.79-.54a5.61 5.61 0 0 0 2.035-1.338 5.693 5.693 0 0 0 1.325-2.055c.283-.74.48-1.583.534-2.817.054-1.239.068-1.633.068-4.786 0-3.154-.014-3.548-.067-4.786-.054-1.234-.252-2.082-.535-2.818a5.444 5.444 0 0 0-1.316-2.064 5.62 5.62 0 0 0-2.035-1.338c-.732-.286-1.568-.486-2.79-.54-1.23-.059-1.621-.073-4.743-.073L11.5.774z"/><path d="M11.5 6.422c-3.261 0-5.907 2.672-5.907 5.965 0 3.294 2.646 5.965 5.907 5.965s5.907-2.671 5.907-5.965c0-3.293-2.646-5.965-5.907-5.965zm0 9.835c-2.116 0-3.832-1.733-3.832-3.87s1.716-3.87 3.832-3.87c2.116 0 3.832 1.733 3.832 3.87s-1.716 3.87-3.832 3.87zm7.52-10.071c0 .769-.617 1.393-1.379 1.393s-1.38-.624-1.38-1.393.618-1.393 1.38-1.393c.762 0 1.38.623 1.38 1.393z"/></g></svg>
